-----BEGIN PGP PUBLIC KEY BLOCK-----

mQINBGll3MwBEACiit9gbc1C6TVxZ3BobFrgz35WCOx2BSsnLHNgLcixb+TISvuU
6KX3PexOlcWhAtOqOofE1PBN5qRXgCPKtHeB85oo8xC9PNHXPl1CR7SExqsDj55T
Ag66m+JOGHHWHAOogyFtobJMhsxdg57iLe3jSa4e6vleMxsBSdZ8oTzcDrrXnbg0
7KZ7ISPJd5Xm3Y85X+sOB/NgzvrZ/X5FATXVBySSc4KvnFq6HUVxmCLS3BDO0a0l
msrWIFnvaHDArJUuG6U68WTJeElKlymRMp4HtEpNXAr7da34NgWq7VjyHSBOyXDS
vMumDEYeLE863z2NXc8utYtHr0WIVIsga9aNIEZtu2XM6fXaZcujBqU7Tnsyo1vi
Ipmh+cX51lJUM0iSs+7wWOMpAIzEJ5F0F3PJqJTY0lcpastdqeTQ4XEfxg3Gl1PI
SEBUHq8xpMh3nTNNmNRjXTN/EXcy5zoj9wPTG5Ja6NZB372KrN/aZFA6Mb1eoPXg
z8Io7GRZKP/PKn+7sbrQb/kLFxy8vWhVn6av/3k5jRdsWTj/5GQOR8y/XhYm40jW
h9BOV9aKrd5Qv2UvesuaeRqXPVgetRjjyhx+mhXEuiO9wwoL2+4rb69/TsleRCK/
A+vvBfTlHnjIAw+QDi3nvX2jzaxzKs7h/cOpTOO6eA7FCNxm4834V6aS4wARAQAB
tCRFbGVjdHJ1bS1TY2FzaCA8YXpoYXIuaXNuQHByb3Rvbi5tZT6JAlEEEwEKADsW
IQRRTicHczXRPOsSNa9+xDW/n83xPAUCaWXczAIbAwULCQgHAgIiAgYVCgkICwIE
FgIDAQIeBwIXgAAKCRB+xDW/n83xPOrnD/9GNnoAaDt+MTpFZT24YkkOGzcpo9Dh
8BAlv4+PE7TKY1mxmA69lEEOeeWI6mQTY/+08KMyWnXEjuHmSntZJ32HQK2PF0xF
e+y8NcqKgywHKbbdyQOHQeYVquicaR3YfmV0CWGO6EHNha6OjUFMnOrlrbe/5B4+
uVYrFIQZ1BCVTcKU9IjtKkOpOrDhuxEazP7DtZcAZuUaTcCVr0x+1tgNnlvHLgGO
ghDqnZJdT1vy9UItMFxHEMUf0wW6tedmMzQZNQhgnFk0UH5pLq4XCDhJyajrZfF5
up5CI4yb80m+zYTUFivmJVi4KYXTg4dRFGYcIpMLfREBuZfhkk2cxFVI8QIz53uT
2M8mGygNcazYmxS+fTHVVYcIJ/lR9VuiuK5MNOLsvJev7cTu6K0vUZu+D76XJ2O9
j7bFNO4PkdCr/f52t22yJrXnZcidqNQQWTS5HUvfM7KBJ+Qp7fIPd1Bc/wbUb2po
GysEyHv+VBz4kYOvXl+H9/iHHEJAUrpDf9Yp9jogq/We0uz2Wzoj3nxRXZFjDC0M
ZUgB+MO9+b7xhMkv548JNdtT6Fs7I6kapOE7MzTnA4ZjjruPbgiPiKq7Bjt21js9
Dq9E7Ch/JLuPUn4hgMOVBexBgx5hu9spzOVdGcd4zj/Yti+uMfIi6B5ntdxfb0vj
q6sFNFZhLoHT7A==
=b0mq
-----END PGP PUBLIC KEY BLOCK-----
